packages/ui-icons/svg/Line/table-cell-select-all.svg

<svg viewBox="0 0 1920 1920" version="1.1" xmlns="http://www.w3.org/2000/svg">
    <path d="M1740 0c99.24 0 180 80.76 180 180v1560c0 99.24-80.76 180-180 180H180c-99.24 0-180-80.76-180-180V180C0 80.76 80.76 0 180 0h1560zM894 1800v-774H120v677.25c0 53.213 43.537 96.75 96.75 96.75H894zm0-906V120H216.75c-53.213 0-96.75 43.537-96.75 96.75V894h774zm906 809.25V1026h-774v774h677.25c53.213 0 96.75-43.537 96.75-96.75zm0-809.25V216.75c0-53.213-43.537-96.75-96.75-96.75H1026v774h774z" stroke="none" stroke-width="1" fill-rule="evenodd"/>
</svg>

<svg viewBox="0 0 1920 1920" version="1.1" xmlns="http://www.w3.org/2000/svg">
    <path d="M1740,0 C1839.24,0 1920,80.76 1920,180 L1920,1740 C1920,1839.24 1839.24,1920 1740,1920 L180,1920 C80.76,1920 0,1839.24 0,1740 L0,180 C0,80.76 80.76,0 180,0 L1740,0 Z M894,1800 L894,1026 L120,1026 L120,1703.25 C120,1756.4625 163.5375,1800 216.75,1800 L894,1800 Z M894,894 L894,120 L216.75,120 C163.5375,120 120,163.5375 120,216.75 L120,894 L894,894 Z M1800,1703.25 L1800,1026 L1026,1026 L1026,1800 L1703.25,1800 C1756.4625,1800 1800,1756.4625 1800,1703.25 Z M1800,894 L1800,216.75 C1800,163.5375 1756.4625,120 1703.25,120 L1026,120 L1026,894 L1800,894 Z" stroke="none" stroke-width="1" fill-rule="evenodd"/>
</svg>
